flaticon/weather/clouds-1.svg

<svg xmlns="http://www.w3.org/2000/svg" width="32" height="32" viewBox="0 0 24 24">
    <path d="M12.84375 9.148438C12.847656 9.035156 12.851562 8.921875 12.867188 8.8125 12.871094 8.773438 12.878906 8.738281 12.882812 8.699219 12.90625 8.558594 12.9375 8.417969 12.972656 8.277344 12.980469 8.261719 12.980469 8.246094 12.988281 8.230469 13.035156 8.066406 13.09375 7.910156 13.164062 7.753906 13.167969 7.746094 13.171875 7.738281 13.175781 7.726562 13.242188 7.582031 13.320312 7.4375 13.40625 7.300781 13.425781 7.265625 13.445312 7.234375 13.464844 7.203125L13.484375 7.171875C14.164062 6.167969 15.316406 5.503906 16.621094 5.503906 18.652344 5.503906 20.3125 7.113281 20.402344 9.125 18.835938 9.324219 17.617188 10.664062 17.617188 12.285156 17.617188 12.507812 17.796875 12.683594 18.015625 12.683594 18.238281 12.683594 18.414062 12.507812 18.414062 12.285156 18.414062 10.964844 19.488281 9.894531 20.808594 9.894531 22.128906 9.894531 23.203125 10.964844 23.203125 12.285156 23.203125 12.507812 23.378906 12.683594 23.601562 12.683594 23.820312 12.683594 24 12.507812 24 12.285156 24 10.660156 22.773438 9.316406 21.199219 9.121094 21.105469 6.671875 19.089844 4.707031 16.621094 4.707031 15.203125 4.707031 13.9375 5.355469 13.09375 6.367188 11.984375 4.871094 10.261719 3.992188 8.375 3.992188 5.121094 3.992188 2.476562 6.640625 2.476562 9.894531 2.476562 11.433594 3.066406 12.859375 4.113281 13.949219 2.753906 14.117188 1.503906 14.886719.753906 16.121094-.558594 18.285156.132812 21.109375 2.292969 22.425781 2.355469 22.464844 2.429688 22.480469 2.5 22.480469 2.632812 22.480469 2.765625 22.414062 2.839844 22.289062 2.953125 22.101562 2.894531 21.855469 2.707031 21.742188.921875 20.65625.351562 18.324219 1.4375 16.539062 2.3125 15.09375 4.007812 14.417969 5.621094 14.835938 5.800781 15.425781 6.148438 15.945312 6.636719 16.34375 6.710938 16.40625 6.800781 16.4375 6.890625 16.4375 7.003906 16.4375 7.117188 16.386719 7.195312 16.292969 7.335938 16.121094 7.3125 15.871094 7.144531 15.730469 6.75 15.40625 6.476562 14.972656 6.351562 14.488281 6.347656 14.464844 6.339844 14.445312 6.335938 14.425781L6.328125 14.398438C6.269531 14.128906 6.257812 13.859375 6.289062 13.59375 6.289062 13.582031 6.292969 13.566406 6.296875 13.554688 6.304688 13.484375 6.316406 13.414062 6.332031 13.347656 6.335938 13.324219 6.34375 13.300781 6.347656 13.28125 6.363281 13.222656 6.382812 13.164062 6.402344 13.105469 6.410156 13.078125 6.417969 13.054688 6.429688 13.027344 6.449219 12.972656 6.472656 12.921875 6.496094 12.871094 6.507812 12.84375 6.523438 12.816406 6.535156 12.789062 6.5625 12.738281 6.589844 12.6875 6.621094 12.636719 6.636719 12.613281 6.648438 12.589844 6.664062 12.566406 6.710938 12.496094 6.761719 12.425781 6.816406 12.359375 7.359375 11.703125 8.1875 11.394531 9.007812 11.515625 8.894531 11.980469 8.882812 12.480469 9.003906 12.980469 9.046875 13.164062 9.210938 13.289062 9.390625 13.289062 9.421875 13.289062 9.449219 13.285156 9.480469 13.277344 9.695312 13.226562 9.828125 13.011719 9.777344 12.796875 9.664062 12.316406 9.707031 11.835938 9.867188 11.40625L9.875 11.390625C9.882812 11.375 9.890625 11.359375 9.898438 11.34375 9.925781 11.269531 9.957031 11.199219 9.996094 11.132812 10.007812 11.113281 10.015625 11.089844 10.027344 11.070312 10.0625 11.011719 10.101562 10.953125 10.140625 10.894531 10.152344 10.878906 10.164062 10.859375 10.175781 10.84375 10.28125 10.695312 10.40625 10.5625 10.539062 10.441406 10.546875 10.4375 10.554688 10.429688 10.5625 10.425781 10.621094 10.375 10.6875 10.324219 10.75 10.28125 10.769531 10.269531 10.785156 10.257812 10.800781 10.246094 10.859375 10.207031 10.921875 10.171875 10.980469 10.140625 11.003906 10.128906 11.023438 10.117188 11.046875 10.105469 11.105469 10.078125 11.167969 10.050781 11.234375 10.023438 11.253906 10.015625 11.277344 10.007812 11.296875 10 11.382812 9.96875 11.46875 9.941406 11.558594 9.917969 11.691406 9.890625 11.824219 9.871094 11.957031 9.863281 11.964844 9.863281 11.972656 9.863281 11.976562 9.863281 12.117188 9.855469 12.253906 9.859375 12.394531 9.875 12.414062 9.878906 12.429688 9.878906 12.449219 9.882812L12.507812 9.890625C13.425781 10.046875 14.210938 10.738281 14.4375 11.699219 14.488281 11.914062 14.703125 12.046875 14.917969 12 15.128906 11.949219 15.261719 11.734375 15.214844 11.519531 14.929688 10.304688 13.980469 9.421875 12.84375 9.148438zM8.375 4.789062C10.097656 4.789062 11.664062 5.636719 12.617188 7.066406 12.453125 7.359375 12.320312 7.675781 12.222656 8.003906 12.210938 8.042969 12.203125 8.078125 12.195312 8.113281 12.164062 8.234375 12.132812 8.355469 12.113281 8.476562 12.101562 8.535156 12.09375 8.589844 12.085938 8.648438 12.070312 8.75 12.058594 8.855469 12.050781 8.957031 12.050781 8.992188 12.042969 9.027344 12.039062 9.058594 11.820312 9.066406 11.597656 9.089844 11.378906 9.144531 11.265625 9.167969 11.160156 9.203125 11.054688 9.238281 11.035156 9.246094 11.015625 9.253906 10.996094 9.261719 10.910156 9.292969 10.824219 9.328125 10.742188 9.367188 10.722656 9.375 10.703125 9.386719 10.683594 9.398438 10.605469 9.4375 10.527344 9.480469 10.453125 9.523438 10.429688 9.539062 10.410156 9.554688 10.386719 9.566406 10.316406 9.613281 10.25 9.660156 10.183594 9.710938 10.15625 9.726562 10.132812 9.75 10.109375 9.765625 10.050781 9.816406 9.992188 9.867188 9.933594 9.917969 9.910156 9.941406 9.882812 9.96875 9.859375 9.992188 9.808594 10.042969 9.757812 10.097656 9.710938 10.148438 9.683594 10.179688 9.660156 10.210938 9.632812 10.242188 9.589844 10.292969 9.550781 10.347656 9.511719 10.402344 9.488281 10.4375 9.464844 10.472656 9.441406 10.507812 9.402344 10.566406 9.367188 10.621094 9.335938 10.679688 9.320312 10.707031 9.304688 10.726562 9.292969 10.753906 9.269531 10.75 9.242188 10.746094 9.21875 10.742188 9.15625 10.730469 9.09375 10.726562 9.03125 10.71875 8.941406 10.707031 8.851562 10.699219 8.761719 10.695312 8.699219 10.695312 8.636719 10.695312 8.574219 10.695312 8.484375 10.699219 8.398438 10.703125 8.3125 10.714844 8.25 10.722656 8.1875 10.730469 8.125 10.738281 8.039062 10.753906 7.953125 10.773438 7.871094 10.796875 7.808594 10.8125 7.75 10.828125 7.6875 10.847656 7.605469 10.875 7.523438 10.90625 7.441406 10.941406 7.382812 10.964844 7.328125 10.984375 7.273438 11.011719 7.191406 11.054688 7.109375 11.097656 7.03125 11.148438 6.980469 11.175781 6.929688 11.203125 6.882812 11.238281 6.796875 11.292969 6.71875 11.359375 6.640625 11.425781 6.601562 11.457031 6.558594 11.484375 6.523438 11.519531 6.410156 11.621094 6.300781 11.734375 6.203125 11.855469 6.136719 11.933594 6.078125 12.015625 6.019531 12.097656 6 12.128906 5.984375 12.15625 5.964844 12.1875 5.929688 12.242188 5.894531 12.296875 5.863281 12.351562 5.84375 12.390625 5.824219 12.433594 5.804688 12.472656 5.78125 12.519531 5.757812 12.570312 5.734375 12.617188 5.714844 12.664062 5.699219 12.710938 5.679688 12.753906 5.664062 12.800781 5.648438 12.847656 5.632812 12.894531 5.617188 12.941406 5.601562 12.992188 5.585938 13.042969 5.574219 13.085938 5.566406 13.132812 5.554688 13.175781 5.542969 13.226562 5.53125 13.28125 5.523438 13.335938 5.515625 13.378906 5.507812 13.421875 5.503906 13.464844 5.496094 13.519531 5.488281 13.574219 5.484375 13.632812 5.480469 13.671875 5.480469 13.710938 5.480469 13.753906 5.476562 13.8125 5.476562 13.871094 5.476562 13.933594 5.476562 13.941406 5.476562 13.949219 5.476562 13.960938 5.40625 13.945312 5.335938 13.9375 5.261719 13.925781 3.996094 12.949219 3.273438 11.488281 3.273438 9.894531 3.273438 7.078125 5.5625 4.789062 8.375 4.789062zM21.984375 19.101562C21.800781 17.511719 20.449219 16.273438 18.816406 16.273438 17.054688 16.273438 15.625 17.707031 15.625 19.464844 15.625 19.6875 15.800781 19.863281 16.023438 19.863281 16.242188 19.863281 16.421875 19.6875 16.421875 19.464844 16.421875 18.144531 17.496094 17.074219 18.816406 17.074219 20.011719 17.074219 21.003906 17.957031 21.179688 19.109375 20.0625 19.3125 19.214844 20.285156 19.214844 21.460938 19.214844 21.679688 19.390625 21.859375 19.613281 21.859375 19.832031 21.859375 20.011719 21.679688 20.011719 21.460938 20.011719 20.582031 20.726562 19.863281 21.605469 19.863281 22.488281 19.863281 23.203125 20.582031 23.203125 21.460938 23.203125 21.679688 23.378906 21.859375 23.601562 21.859375 23.820312 21.859375 24 21.679688 24 21.460938 24 20.269531 23.125 19.28125 21.984375 19.101562zM21.984375 19.101562"/>
    <path d="M.398438 10.292969L2.050781 10.292969C2.269531 10.292969 2.449219 10.113281 2.449219 9.894531 2.449219 9.671875 2.269531 9.496094 2.050781 9.496094L.398438 9.496094C.179688 9.496094 0 9.671875 0 9.894531 0 10.113281.179688 10.292969.398438 10.292969zM8.375 3.964844C8.597656 3.964844 8.773438 3.785156 8.773438 3.566406L8.773438 1.917969C8.773438 1.695312 8.597656 1.519531 8.375 1.519531 8.15625 1.519531 7.976562 1.695312 7.976562 1.917969L7.976562 3.566406C7.976562 3.785156 8.15625 3.964844 8.375 3.964844zM3.621094 5.703125C3.699219 5.78125 3.800781 5.820312 3.902344 5.820312 4.003906 5.820312 4.105469 5.78125 4.183594 5.703125 4.339844 5.546875 4.339844 5.292969 4.183594 5.136719L2.605469 3.558594C2.449219 3.402344 2.199219 3.402344 2.042969 3.558594 1.886719 3.714844 1.886719 3.96875 2.042969 4.125zM12.847656 5.820312C12.953125 5.820312 13.054688 5.78125 13.132812 5.703125L14.710938 4.125C14.867188 3.96875 14.867188 3.714844 14.710938 3.558594 14.554688 3.402344 14.300781 3.402344 14.144531 3.558594L12.566406 5.136719C12.410156 5.292969 12.410156 5.546875 12.566406 5.703125 12.644531 5.78125 12.746094 5.820312 12.847656 5.820312zM5.535156 4.226562C5.601562 4.378906 5.75 4.46875 5.902344 4.46875 5.957031 4.46875 6.007812 4.457031 6.058594 4.4375 6.261719 4.351562 6.355469 4.117188 6.269531 3.914062L5.949219 3.152344C5.863281 2.949219 5.628906 2.855469 5.425781 2.941406 5.222656 3.027344 5.128906 3.261719 5.214844 3.464844zM10.597656 4.398438C10.644531 4.417969 10.695312 4.425781 10.746094 4.425781 10.902344 4.425781 11.054688 4.332031 11.117188 4.175781L11.425781 3.410156C11.507812 3.207031 11.410156 2.976562 11.203125 2.890625 11 2.808594 10.765625 2.910156 10.683594 3.113281L10.375 3.878906C10.292969 4.082031 10.390625 4.316406 10.597656 4.398438zM1.425781 12.84375C1.488281 12.996094 1.636719 13.085938 1.792969 13.085938 1.84375 13.085938 1.898438 13.078125 1.949219 13.054688L2.707031 12.734375C2.910156 12.644531 3.003906 12.414062 2.917969 12.210938 2.832031 12.007812 2.597656 11.914062 2.394531 12L1.636719 12.320312C1.433594 12.40625 1.339844 12.640625 1.425781 12.84375zM1.59375 7.585938L2.359375 7.894531C2.410156 7.914062 2.460938 7.921875 2.511719 7.921875 2.667969 7.921875 2.816406 7.828125 2.878906 7.671875 2.960938 7.46875 2.863281 7.238281 2.660156 7.152344L1.894531 6.84375C1.691406 6.761719 1.457031 6.859375 1.375 7.066406 1.292969 7.269531 1.390625 7.5 1.59375 7.585938zM1.59375 7.585938"/>
</svg>

<svg xmlns="http://www.w3.org/2000/svg" width="32" height="32" viewBox="0 0 24 24">
    <path d="M12.844 9.148c.004-.113.008-.226.023-.335.004-.04.012-.075.016-.114.023-.14.055-.281.09-.422.007-.015.007-.03.015-.047a3.488 3.488 0 0 1 .188-.503c.066-.145.144-.29.23-.426l.059-.098.02-.031a3.786 3.786 0 0 1 3.136-1.668 3.792 3.792 0 0 1 3.781 3.621 3.193 3.193 0 0 0-2.785 3.16c0 .223.18.399.399.399a.395.395 0 0 0 .398-.399 2.394 2.394 0 0 1 4.79 0c0 .223.175.399.398.399a.398.398 0 0 0 .398-.399 3.198 3.198 0 0 0-2.8-3.164 4.591 4.591 0 0 0-4.579-4.414 4.584 4.584 0 0 0-3.527 1.66 5.834 5.834 0 0 0-4.719-2.375 5.907 5.907 0 0 0-5.898 5.903c0 1.539.59 2.964 1.636 4.054a4.579 4.579 0 0 0-3.36 2.172 4.598 4.598 0 0 0 1.54 6.305c.062.039.137.054.207.054a.399.399 0 0 0 .207-.738 3.79 3.79 0 0 1-1.27-5.203 3.77 3.77 0 0 1 4.184-1.703c.18.59.527 1.11 1.016 1.508a.393.393 0 0 0 .558-.051.401.401 0 0 0-.05-.563 2.369 2.369 0 0 1-.793-1.242c-.004-.023-.012-.043-.016-.062l-.008-.028c-.058-.27-.07-.539-.039-.804 0-.012.004-.028.008-.04.008-.07.02-.14.035-.206.004-.024.012-.047.016-.067a3.028 3.028 0 0 1 .148-.41c.012-.027.027-.055.04-.082.027-.05.054-.101.085-.152.016-.024.027-.047.043-.07a2.382 2.382 0 0 1 2.344-1.05 3.094 3.094 0 0 0-.004 1.463.4.4 0 0 0 .476.297.4.4 0 0 0 .297-.48c-.113-.48-.07-.961.09-1.39l.008-.016.023-.047c.028-.074.059-.145.098-.211.012-.02.02-.043.031-.063a4.44 4.44 0 0 1 .114-.175c.011-.016.023-.036.035-.051.105-.149.23-.281.363-.403l.024-.015c.058-.051.124-.102.187-.145a2.148 2.148 0 0 1 .23-.14l.067-.036c.058-.027.121-.054.187-.082l.063-.023a2.91 2.91 0 0 1 .262-.082 2.79 2.79 0 0 1 .398-.055h.02c.14-.008.277-.004.418.012.02.004.035.004.054.008l.059.008a2.398 2.398 0 0 1 1.93 1.808c.05.215.265.348.48.301a.405.405 0 0 0 .297-.48 3.194 3.194 0 0 0-2.371-2.372zM8.375 4.79c1.723 0 3.29.848 4.242 2.277-.164.293-.297.61-.394.938a1.49 1.49 0 0 0-.028.11c-.03.12-.062.241-.082.363-.011.058-.02.113-.027.171a4.144 4.144 0 0 0-.035.309c0 .035-.008.07-.012.102a3.187 3.187 0 0 0-.984.18l-.059.023a2.893 2.893 0 0 0-.543.261c-.023.016-.043.032-.066.043-.07.047-.137.094-.203.145-.028.016-.051.039-.075.055l-.175.152-.075.074c-.05.051-.101.106-.148.156-.027.032-.05.063-.078.094-.043.051-.082.106-.121.16l-.07.106c-.04.058-.075.113-.106.172-.016.027-.031.047-.043.074l-.074-.012c-.063-.012-.125-.015-.188-.023-.09-.012-.18-.02-.27-.024h-.187c-.09.004-.176.008-.261.02l-.188.023a2.667 2.667 0 0 0-.254.059 3.213 3.213 0 0 0-.184.05 3.168 3.168 0 0 0-.246.094c-.058.024-.113.043-.168.07-.082.044-.164.087-.242.137-.05.028-.101.055-.148.09a2.229 2.229 0 0 0-.242.188c-.04.031-.082.058-.118.094a2.902 2.902 0 0 0-.32.335c-.066.079-.125.16-.183.243-.02.03-.036.058-.055.09-.035.054-.07.109-.102.164-.02.039-.039.082-.058.12l-.07.145c-.02.047-.036.094-.055.137l-.047.14a6.865 6.865 0 0 0-.047.149c-.012.043-.02.09-.031.133-.012.05-.024.105-.032.16a1.467 1.467 0 0 0-.02.129c-.007.055-.015.11-.019.168-.004.039-.004.078-.004.12-.003.06-.003.118-.003.18v.028c-.07-.016-.141-.024-.215-.035a5.047 5.047 0 0 1-1.989-4.031 5.109 5.109 0 0 1 5.102-5.106zm0 0M21.984 19.102a3.198 3.198 0 0 0-3.168-2.829 3.195 3.195 0 0 0-3.191 3.192c0 .223.176.398.398.398a.398.398 0 0 0 .399-.398c0-1.32 1.074-2.39 2.394-2.39 1.196 0 2.188.882 2.364 2.034a2.391 2.391 0 0 0-1.965 2.352.398.398 0 1 0 .797 0c0-.879.715-1.598 1.593-1.598a1.6 1.6 0 0 1 1.598 1.598.398.398 0 1 0 .797 0c0-1.191-.875-2.18-2.016-2.36zm0 0"/>
    <path d="M.398 10.293h1.653a.398.398 0 1 0 0-.797H.398a.398.398 0 1 0 0 .797zm0 0M8.375 3.965c.223 0 .398-.18.398-.399V1.918a.395.395 0 0 0-.398-.398.398.398 0 0 0-.398.398v1.648a.4.4 0 0 0 .398.399zm0 0M3.621 5.703a.396.396 0 0 0 .563 0 .4.4 0 0 0 0-.566L2.605 3.559a.396.396 0 0 0-.562 0 .4.4 0 0 0 0 .566zm0 0M12.848 5.82c.105 0 .207-.039.285-.117l1.578-1.578a.4.4 0 0 0-.566-.566l-1.579 1.578a.4.4 0 0 0 .282.683zm0 0M5.535 4.227a.402.402 0 0 0 .524.21.399.399 0 0 0 .21-.523l-.32-.762a.399.399 0 1 0-.734.313zm0 0M10.598 4.398a.4.4 0 0 0 .52-.223l.308-.765a.4.4 0 0 0-.742-.297l-.309.766a.399.399 0 0 0 .223.52zm0 0M1.426 12.844c.062.152.21.242.367.242.05 0 .105-.008.156-.031l.758-.32A.399.399 0 1 0 2.394 12l-.757.32a.399.399 0 0 0-.211.523zm0 0M1.594 7.586l.765.309c.051.02.102.027.153.027a.396.396 0 0 0 .367-.25.401.401 0 0 0-.219-.52l-.765-.308a.401.401 0 0 0-.3.742zm0 0"/>
</svg>
